docs/img/dist/icon-faq-01.svg

<svg width="14" height="18" viewBox="0 0 14 18" fill="none" xmlns="http://www.w3.org/2000/svg">
<path d="M12.325 5.4751H1.675C1.30221 5.4751 1 5.77731 1 6.1501V6.2251C1 6.59789 1.30221 6.9001 1.675 6.9001H12.325C12.6978 6.9001 13 6.59789 13 6.2251V6.1501C13 5.77731 12.6978 5.4751 12.325 5.4751Z" fill="#202020"/>
<path d="M9.325 2.8501H4.675C4.30221 2.8501 4 3.15231 4 3.5251V3.6001C4 3.97289 4.30221 4.2751 4.675 4.2751H9.325C9.69779 4.2751 10 3.97289 10 3.6001V3.5251C10 3.15231 9.69779 2.8501 9.325 2.8501Z" fill="#D61635"/>
<path fill-rule="evenodd" clip-rule="evenodd" d="M1.52501 9.9749H1.97501C2.54473 9.48519 3.02665 8.90181 3.40001 8.2499C3.77501 7.4999 4.07501 6.8999 4.15001 6.2999V6.1499H1.60001V9.9749H1.52501ZM1.52501 6.2249H1.45001H1.52501Z" stroke="#202020" stroke-width="1.425"/>
<path fill-rule="evenodd" clip-rule="evenodd" d="M2.87502 0.75L1.52502 6.225V17.1H5.57502L6.32502 14.7C6.32502 14.5011 6.40404 14.3103 6.54469 14.1697C6.68535 14.029 6.87611 13.95 7.07502 13.95C7.27394 13.95 7.4647 14.029 7.60535 14.1697C7.74601 14.3103 7.82502 14.5011 7.82502 14.7L8.35002 17.1H12.475V6.225L11.05 0.825V0.75H2.87502Z" stroke="#202020" stroke-width="1.425"/>
<path fill-rule="evenodd" clip-rule="evenodd" d="M12.55 9.9749H12.1C11.5303 9.48519 11.0484 8.90181 10.675 8.2499C10.3 7.4999 9.99999 6.8999 9.92499 6.2999V6.1499H12.475V9.9749H12.55Z" stroke="#202020" stroke-width="1.425"/>
<path fill-rule="evenodd" clip-rule="evenodd" d="M7.75001 12.5251L8.42501 14.4001H5.57501L6.32501 12.5251C6.37433 12.375 6.46976 12.2444 6.59771 12.1518C6.72565 12.0591 6.87956 12.0093 7.03751 12.0093C7.19546 12.0093 7.34938 12.0591 7.47732 12.1518C7.60526 12.2444 7.70069 12.375 7.75001 12.5251Z" fill="#202020"/>
</svg>

<svg width="14" height="18" fill="none" xmlns="http://www.w3.org/2000/svg"><path d="M12.325 5.475H1.675A.675.675 0 001 6.15v.075c0 .373.302.675.675.675h10.65A.675.675 0 0013 6.225V6.15a.675.675 0 00-.675-.675z" fill="#202020"/><path d="M9.325 2.85h-4.65A.675.675 0 004 3.525V3.6c0 .373.302.675.675.675h4.65A.675.675 0 0010 3.6v-.075a.675.675 0 00-.675-.675z" fill="#D61635"/><path clip-rule="evenodd" d="M1.525 9.975h.45A6.6 6.6 0 003.4 8.25c.375-.75.675-1.35.75-1.95v-.15H1.6v3.825h-.075zm0-3.75H1.45h.075z" stroke="#202020" stroke-width="1.425"/><path clip-rule="evenodd" d="M2.875.75l-1.35 5.475V17.1h4.05l.75-2.4a.75.75 0 111.5 0l.525 2.4h4.125V6.225L11.05.825V.75H2.875z" stroke="#202020" stroke-width="1.425"/><path clip-rule="evenodd" d="M12.55 9.975h-.45a6.601 6.601 0 01-1.425-1.725C10.3 7.5 10 6.9 9.925 6.3v-.15h2.55v3.825h.075z" stroke="#202020" stroke-width="1.425"/><path fill-rule="evenodd" clip-rule="evenodd" d="M7.75 12.525l.675 1.875h-2.85l.75-1.875a.75.75 0 011.425 0z" fill="#202020"/></svg>
